X:1
T:Danubio Azul
T:Danúbio Azul
T:J. Strauss
T:Valsa
C:J. Strauss
Z:Arr.:Leilson Rodrigues Batista
%%score 1 2 3 4
L:1/8
M:3/4
K:C
V:1 treble nm="Violino" snm="Vln."
V:2 treble nm="Violino" snm="Vln."
V:3 alto nm="Viola" snm="Vla"
V:4 bass nm="Violoncelo" snm="Vc."
V:1
!p! C2 E2 G2 | G4{/c} g2 | g2 z2{/c} e2 | e2 z2 C2 | C2 E2 G2 | G4{/d} g2 | g2 z2{/d} f2 | %7
 f2 z2 B,2 | B,2 D2 A2 | A4 a2 | a2 z2{/A} f2 | f2 z2 B,2 | B,2 D2 A2 | A4 a2 | a2 z2 e2 | %15
 e2 z2"^A"!<(! C2 | C2 E2 G2 | c2 z2!<)! c'2 | c'2 z2 g2 | g2 z2!<(! C2 | C2 E2 G2 | %21
 c2!<)! z2 c'2 | c'2 z2 a2 | a2 z2!mf! d2 | d2 f2 a2 | a6- | a2 ^f2 g2 | (e'6 | e'2) c'2 e2 | %29
 e4 d2 | a4 g2 | c6- | c z!p!"^2ª" c'2 b2 ||"^B" b2 a2 a2 | z2 a2 ^g2 | ^g2 a2 a2 | z2 d2 d2 | %37
 e4 d2 | z2 d2 d2 | a4 g2 | z2!mf! c'2 b2 | b2 a2 a2 | z2 a2 b2 | d'2 c'2 c'2 | z2 ^f2 a2 | a4 g2 | %46
 ^f2- fe cA | ee e2 d2 | G2 z2!p!"^Só Piano" g2 ||"^C" f2 z2 g2 | f2 z2 g2 | e'6 | z2 d'2 g2 | %53
 e2 z2 g2 | e2 z2 g2 | d'6 | z2!f! c'2 g2 | f2 z2 g2 | f2 z2 g2 | e'6 | z2 d'2 g2 | c2 d2 e2 | %62
 g4 f2 | ee e2 d2 | c2 z4 ||!p!"^D" C2 E2 G2 | G4{/c} g2 | g2 z2{/c} e2 | e2 z2 C2 | C2 E2 G2 | %70
 G4{/d} g2 | g2 z2{/d} f2 | f2 z2 B,2 | B,2 D2 A2 | A4 a2 | a2 z2{/A} f2 | f2 z2 B,2 | B,2 D2 A2 | %78
 A4 a2 | a2 z2 e2 | e2 z2"^E"!<(! C2 | C2 E2 G2 | c4!<)! c'2 | c'2 z2 g2 | g2 z2!<(! C2 | %85
 C2 E2 G2 | c2!<)! z2 c'2 | c'2 z2 a2 | a2 z2!mf! d2 | d2 f2 a2 | a6- | a2 ^f2 g2 | (e'6 | %93
 e'2) c'2 e2 | e4 d2 | a4!f! g2 | c6- | c2 z4 |] %98
V:2
 z6 | z2 z2!p!{/c} e2 | e2 z2 c2 | c2 z2 z2 | z2 z2 z2 | z2 z2 f2 | f2 z2 B2 | [GB]2 z2 z2 | z6 | %9
 z2 z2 f2 | f2 z2 d2 | [Ad]2 z2 z2 | z6 | A2 z2 e2 | e2 z2 c2 | c2 z2 z2 | z6 | c2 z2 g2 | %18
 g2 z2 e2 | e2 z2 z2 | z6 | c2 z2 a2 | a2 z2 f2 | f2 z2 z2 | z6 | (A6 | A2) ^F2 G2 | (e6 | %28
 e2) c2 E2 | E4 D2 | A4 G2 | C6- | C z e2 d2 || d2 c2 c2 | z2 c2 B2 | B2 c2 c2 | z2 D2 D2 | E4 D2 | %38
 z2 D2 D2 | A4 G2 | z2 e2 d2 | d2 c2 c2 | z2 c2 d2 | ^f2 e2 e2 | ^F6 | A4 G2 | A4 c2 | cc c2 B2 | %48
 D2 z4 || F2 D2 G2 | F2 D2 G2 | G2 B,2 G2 | G2 D2 G2 | E2 C2 G2 | E2 C2 G2 | C2 E2 C2 | G2 C2 G2 | %57
 F2 D2 G2 | F2 D2 G2 | G2 B,2 G2 | G2 D2 G2 | E2 F2 G2 | _B6 | cc c2 B2 | G2 z4 || z6 | %66
 z2 z2{/c} e2 | e2 z2 c2 | c2 z2 z2 | z6 | z2 z2 f2 | f2 z2 B2 | [GB]2 z2 z2 | z6 | z2 z2 f2 | %75
 f2 z2 d2 | [Ad]2 z2 z2 | z6 | A2 z2 e2 | e2 z2 c2 | c2 z2 z2 | z6 | c2 z2 g2 | g2 z2 e2 | %84
 e2 z2 z2 | z6 | c2 z2 a2 | a2 z2 f2 | f2 z2 z2 | z6 | (A6 | A2) ^F2 G2 | (e6 | e2) c2 E2 | E4 D2 | %95
 A4 G2 | C6- | C2 z4 |] %98
V:3
 z6 | z2!p! [CE]2 [CE]2 | z2 [CE]2 [CE]2 | z2 [CE]2 z2 | z6 | z2 [G,B,]2 [G,B,]2 | %6
 z2 [G,B,]2 [G,B,]2 | z2 [G,B,]2 z2 | z6 | z2 [G,B,]2 [G,B,]2 | z2 [G,B,]2 [G,B,]2 | %11
 z2 [G,B,]2 z2 | z6 | z2 [CE]2 [CE]2 | z2 [CE]2 [CE]2 | z2 [CE]2 z2 | z6 | z2 [CE]2 [CE]2 | %18
 z2 [CE]2 [CE]2 | z2 [CE]2 z2 | z6 | z2 [A,F]2 [A,F]2 | z2 [A,F]2 [A,F]2 | z2 [A,F]2 z2 | z6 | %25
 z2 [G,B,]2 [G,B,]2 | z2 [G,B,]2 [G,B,]2 | z2 [CE]2 [CE]2 | z2 [CE]2 [CE]2 | z2 [A,F]2 [A,F]2 | %30
 z2 [G,B,]2 [G,B,]2 | z2 [CE]2 [CE]2 | E z z4 || z2 [CD]2 [CD]2 | z2 [CD]2 [CD]2 | z2 [CD]2 [CD]2 | %36
 z2 [CD]2 [CD]2 | z2 [G,B,]2 [G,B,]2 | z2 [G,B,]2 [G,B,]2 | z2 [G,B,]2 [G,B,]2 | %40
 z2 [G,B,]2 [G,B,]2 | z2 [CD]2 [CD]2 | z2 [CD]2 [CD]2 | z2 [CD]2 [CD]2 | [_E,A,]6 | %45
 z2 [G,E]2 [G,E]2 | z2 [C,A,]2 [C,A,]2 | z2 [CD]2 [CD]2 | B,2 z4 || z2 [G,B,]2 [G,B,]2 | %50
 z2 [G,B,]2 [G,B,]2 | z2 [G,B,]2 [G,B,]2 | z2 [G,B,]2 [G,B,]2 | z2 [CE]2 [CE]2 | z2 [CE]2 [CE]2 | %55
 z2 [CE]2 [CE]2 | z2 [CE]2 [CE]2 | z2 [G,B,]2 [G,B,]2 | z2 [G,B,]2 [G,B,]2 | z2 [G,B,]2 [G,B,]2 | %60
 z2 [G,B,]2 [G,B,]2 | z2 [CE]2 [CE]2 | E6 | [E,G,]2 z2 [F,G,]2 | [CE]2 z4 || z6 | z2 [CE]2 [CE]2 | %67
 z2 [CE]2 [CE]2 | z2 [CE]2 z2 | z6 | z2 [G,B,]2 [G,B,]2 | z2 [G,B,]2 [G,B,]2 | z2 [G,B,]2 z2 | z6 | %74
 z2 [G,B,]2 [G,B,]2 | z2 [G,B,]2 [G,B,]2 | z2 [G,B,]2 z2 | z6 | z2 [CE]2 [CE]2 | z2 [CE]2 [CE]2 | %80
 z2 [CE]2 z2 | z6 | z2 [CE]2 [CE]2 | z2 [CE]2 [CE]2 | z2 [CE]2 z2 | z6 | z2 [A,F]2 [A,F]2 | %87
 z2 [A,F]2 [A,F]2 | z2 [A,F]2 z2 | z6 | z2 [G,B,]2 [G,B,]2 | z2 [G,B,]2 [G,B,]2 | z2 [CE]2 [CE]2 | %93
 z2 [CE]2 [CE]2 | z2 [A,F]2 [A,F]2 | z2 [G,B,]2 [G,B,]2 | z2 [CE]2 [CE]2 | [G,E]2 z4 |] %98
V:4
 z6 |!mp! C,2 G,2 G,2 | E,2 G,2 G,2 | C,2 G,2 z2 | z6 | G,,2 D,2 D,2 | B,,2 D,2 D,2 | G,,2 D,2 z2 | %8
 z6 | G,,2 D,2 D,2 | B,,2 D,2 D,2 | G,,2 D,2 z2 | z6 | C,2 G,2 G,2 | E,2 G,2 G,2 | C,2 G,2 z2 | %16
 z6 | C,2 G,2 G,2 | E,2 G,2 G,2 | C,2 G,2 z2 | z6 | F,,2 C,2 C,2 | A,,2 C,2 C,2 | F,,2 C,2 z2 | %24
 z6 | G,,2 D,2 D,2 | B,,2 D,2 D,2 | C,2 G,2 G,2 | E,2 G,2 G,2 | F,2 C,2 C,2 | G,,2 D,2 D,2 | %31
 C,2 G,2 G,2 | C, z z4 || D,2 A,2 A,2 | ^F,2 A,2 A,2 | D,2 A,2 A,2 | ^F,2 A,2 A,2 | G,,2 D,2 D,2 | %38
 B,,2 D,2 D,2 | G,,2 D,2 D,2 | B,,2 D,2 D,2 | D,2 A,2 A,2 | ^F,2 A,2 A,2 | D,2 A,2 A,2 | C,6 | %45
 E,2 B,2 B,2 | A,,2 E,2 E,2 | D,2 A,2 A,2 | G,,2 z4 || G,,2 D,2 D,2 | B,,2 D,2 D,2 | G,,2 D,2 D,2 | %52
 B,,2 D,2 D,2 | C,2 G,2 G,2 | E,2 G,2 G,2 | C,2 G,2 G,2 | E,2 G,2 G,2 | G,,2 D,2 D,2 | %58
 B,,2 D,2 D,2 | G,,2 D,2 D,2 | B,,2 D,2 D,2 | C,2 G,2 G,2 | ^C,6 | C,2 z2 B,,2 | C,2 z4 || z6 | %66
 C,2 G,2 G,2 | E,2 G,2 G,2 | C,2 G,2 z2 | z6 | G,,2 D,2 D,2 | B,,2 D,2 D,2 | G,,2 D,2 z2 | z6 | %74
 G,,2 D,2 D,2 | B,,2 D,2 D,2 | G,,2 D,2 z2 | z6 | C,2 G,2 G,2 | E,2 G,2 G,2 | C,2 G,2 z2 | z6 | %82
 C,2 G,2 G,2 | E,2 G,2 G,2 | C,2 G,2 z2 | z6 | F,,2 C,2 C,2 | A,,2 C,2 C,2 | F,,2 C,2 z2 | z6 | %90
 G,,2 D,2 D,2 | B,,2 D,2 D,2 | C,2 G,2 G,2 | E,2 G,2 G,2 | F,,2 C,2 C,2 | G,,2 D,2 D,2 | %96
 C,2 G,2 G,2 | C,2 z4 |] %98

